Pods/ProtonCore-UIFoundations/libraries/UIFoundations/Sources/Assets.xcassets/Images/IconSet/ic-switch-off.imageset/ic-switch-off.svg

<svg width="24" height="24" viewBox="0 0 24 24" fill="none" xmlns="http://www.w3.org/2000/svg">
<path fill-rule="evenodd" clip-rule="evenodd" d="M7.53752 1.50013C7.52802 1.49996 7.51854 1.49996 7.50906 1.50013H7.06581C6.47718 1.50013 6 1.97023 6 2.55012V12.7501H6.01243C6.00417 12.8133 6 12.8772 6 12.9413V21C6 21.8284 6.68169 22.5 7.52259 22.5H15.8968C16.7377 22.5 17.4194 21.8284 17.4194 21V12.9685L22.3316 5.36383C22.7281 4.75012 22.3836 3.97013 21.7244 3.78892L17.8642 1.63636C17.7041 1.54706 17.5232 1.50013 17.3392 1.50013H7.53752ZM18.5639 3.75012L17.2189 3.00012H10.413L11.7583 3.75028C11.7658 3.75017 11.7734 3.75012 11.781 3.75012H18.5639ZM10.3557 4.69181L7.52259 3.11194V9.80883L10.3557 4.69181ZM20.6004 5.25011L11.781 5.25011L7.52259 12.9413M20.6004 5.25011L16.1349 12.1632C15.9794 12.4038 15.8968 12.6832 15.8968 12.9685V21H7.52259V12.9413M7.48903 12.9233L7.16669 12.7501L7.48903 12.9233ZM15.5578 7.62605C15.9077 7.85582 16.0022 8.32147 15.769 8.66611L14.2464 10.9161C14.0132 11.2607 13.5405 11.3539 13.1907 11.1241C12.8408 10.8943 12.7463 10.4287 12.9795 10.0841L14.5021 7.83407C14.7353 7.48942 15.208 7.39629 15.5578 7.62605ZM12.0904 16.5C11.6699 16.5 11.3291 16.8358 11.3291 17.25C11.3291 17.6642 11.6699 18 12.0904 18C12.5108 18 12.8517 17.6642 12.8517 17.25C12.8517 16.8358 12.5108 16.5 12.0904 16.5ZM9.80647 17.25C9.80647 16.0074 10.829 15 12.0904 15C13.3517 15 14.3742 16.0074 14.3742 17.25C14.3742 18.4927 13.3517 19.5 12.0904 19.5C10.829 19.5 9.80647 18.4927 9.80647 17.25Z" fill="#0C0C14"/>
</svg>

<svg xmlns="http://www.w3.org/2000/svg" width="24" height="24" viewBox="0 0 24 24">
  <g class="ic-switch-off">
    <path fill-rule="evenodd" d="M7.538 1.5h-.472C6.477 1.5 6 1.97 6 2.55v10.2h.012a1.476 1.476 0 0 0-.012.191V21c0 .828.682 1.5 1.523 1.5h8.374c.84 0 1.522-.672 1.522-1.5v-8.031l4.913-7.605c.396-.614.052-1.394-.608-1.575l-3.86-2.153a1.078 1.078 0 0 0-.525-.136H7.538Zm11.026 2.25L17.219 3h-6.806l1.345.75h6.806Zm-8.208.942-2.833-1.58v6.697l2.833-5.117ZM20.6 5.25h-8.819l-4.258 7.691M20.6 5.251l-4.465 6.912c-.156.24-.238.52-.238.806V21H7.523v-8.059m-.034-.018-.322-.173Zm8.069-5.297c.35.23.444.695.211 1.04l-1.523 2.25a.768.768 0 0 1-1.055.208.743.743 0 0 1-.212-1.04l1.523-2.25a.768.768 0 0 1 1.056-.208ZM12.09 16.5a.756.756 0 0 0-.76.75c0 .414.34.75.76.75s.762-.336.762-.75-.341-.75-.762-.75Zm-2.284.75c0-1.243 1.023-2.25 2.284-2.25 1.262 0 2.284 1.007 2.284 2.25s-1.022 2.25-2.284 2.25c-1.261 0-2.284-1.007-2.284-2.25Z" class="Icon"/>
  </g>
</svg>
